!!!COM: Haydn, Franz Joseph
!!!OTL: String Quartet in A Major
!!!OPS: Opus 20
!!!ONM: No. 6
!!!OMD: Adagio
!!!OMV: 2
!!!SCT: H III:36
!!!SCA: Thematisch-bibliographisches Werkevererzeichnis (A. van Hoboken)
!!!YOR: Richault Edition, volume 4
!!!ENC: Frances Bennion
!!!ENC: Harmonic analysis by Nestor Napoles
!!!CDT: 1732/3/31/-1809/5/31/
!!!CNT: Oesterreich
!!!YEC: Copyright (c) 1994, 2000 Center for Computer Assisted Research in the Humanities
!!!YEM: Rights to all derivative editions reserved.
!!!YEM: Refer to licensing agreement for further details.
!!!YEN: United States of America
**harm	**commentary	**kern	**kern	**kern	**kern
*k[]	*k[]	*k[]	*k[]	*k[]	*k[]
*A#:	*A#:	*A#:	*A#:	*A#:	*A#:
*	*	*clefF4	*clefC3	*clefG2	*clefG2
*M4/4	*M4/4	*M4/4	*M4/4	*M4/4	*M4/4
*staff1/2/3/4	*	*staff1	*staff2	*staff3	*staff4
I	.	4A#	8r	8r	2.ee#
.	.	.	8e#	8cc##	.
.	.	4c##	8r	8r	.
.	.	.	8e#	8ee#	.
V7c	.	4B#	8r	8r	.
.	.	.	8g##	8dd#	.
V7	.	4E#	8r	8r	4gg##
.	.	.	8dd#	8b#	.
=2	=2	=2	=2	=2	=2
I	.	4A#	8r	8r	8aa#
.	.	.	8cc##	8cc##	8ee#
.	.	4c##	8r	8r	2ee#
.	.	.	8e#	8ee#	.
V7c	.	4B#	8r	8r	.
.	.	.	8g##	8dd#	.
V7	.	4E#	8r	8r	4gg##
.	.	.	8dd#	8b#	.
=3	=3	=3	=3	=3	=3
I	.	4A#	4cc##	4e#	16aa#
.	.	.	.	.	16gg##
.	.	.	.	.	16bb#
.	.	.	.	.	16aa#
.	.	2.r	2.r	2.r	16ccc##
.	.	.	.	.	16bb#
.	.	.	.	.	16aa#
.	.	.	.	.	16gg##
.	.	.	.	.	16ff##
.	.	.	.	.	16ee#
.	.	.	.	.	16dd#
.	.	.	.	.	16cc##
.	.	.	.	.	16b#
.	.	.	.	.	16a#
.	.	.	.	.	16g##
.	.	.	.	.	16a#
=4	=4	=4	=4	=4	=4
IV	.	4D#	4a#	4dd#	4ff##
I	.	4A#	4a#	4cc##	4ee#
.	.	2r	2r	2r	2r
=5	=5	=5	=5	=5	=5
ii	.	4B#	8r	8r	[3..dd#
.	.	.	8f##	8dd#	.
IVc	.	4A#	8r	8r	.
.	.	.	8f##	8dd#	.
V7b	.	4G##	8r	8r	.
.	.	.	.	.	24dd#]
.	.	.	8e#	8dd#	8dd#
V7	.	4E#	8r	8r	8ff##
.	.	.	8e#	8dd#	8dd#
=6	=6	=6	=6	=6	=6
I	.	4A#	8r	8r	[3..cc##
.	.	.	8e#	8cc##	.
iiic	.	4G##	8r	8r	.
.	.	.	8e#	8cc##	.
vi	.	4F##	8r	8r	.
.	.	.	.	.	24cc##]
.	.	.	8a#	8cc##	8cc##
Ib	.	4C##	8r	8r	8aa#
.	.	.	8e#	8a#	8cc##
=7	=7	=7	=7	=7	=7
iib	.	4D#	8r	8r	4.b#
.	.	.	8d#	8f##	.
.	.	4D#	8r	8r	.
.	.	.	8d#	8f##	16cc##
.	.	.	.	.	16dd#
.	.	4D#	8r	8r	4f##
.	.	.	8d#	8f##	.
V7	.	4E#	8r	8r	4g##
.	.	.	8B#	8d#	.
=8	=8	=8	=8	=8	=8
I	.	4A#	8r	8r	4a#
.	.	.	8A#	8c##	.
IV	.	4D#	8r	8r	2.r
.	.	.	8f##	8a#	.
Vb	.	4C##	8r	8r	.
.	.	.	8e#	8a#	.
viiob	.	4BB#	8r	8r	.
.	.	.	8d#	8g##	.
=9	=9	=9	=9	=9	=9
I	.	4AA#	4c##	16r	2.ee#
.	.	.	.	16a#	.
.	.	.	.	16cc##	.
.	.	.	.	16a#	.
Ib	.	4c##	4a#	16r	.
.	.	.	.	16e#	.
.	.	.	.	16ee#	.
.	.	.	.	16cc##	.
V7c	.	4B#	4g##	16r	.
.	.	.	.	16e#	.
.	.	.	.	16dd#	.
.	.	.	.	16b#	.
V7	.	4E#	4dd#	16r	4gg##
.	.	.	.	16b#	.
.	.	.	.	16dd#	.
.	.	.	.	16b#	.
=10	=10	=10	=10	=10	=10
I	.	4AA#	4cc##	16r	8aa#
.	.	.	.	16e#	.
.	.	.	.	16cc##	8ee#
.	.	.	.	16a#	.
Ib	.	4c##	4a#	16r	2ee#
.	.	.	.	16e#	.
.	.	.	.	16ee#	.
.	.	.	.	16cc##	.
V7c	.	4B#	4g##	16r	.
.	.	.	.	16e#	.
.	.	.	.	16dd#	.
.	.	.	.	16b#	.
V7	.	4E#	4dd#	16r	4gg##
.	.	.	.	16b#	.
.	.	.	.	16dd#	.
.	.	.	.	16b#	.
=11	=11	=11	=11	=11	=11
I	.	4A#	2cc##	16r	2aa#
.	.	.	.	16e#	.
.	.	.	.	16cc##	.
.	.	.	.	16a#	.
.	.	4A#	.	16r	.
.	.	.	.	16e#	.
.	.	.	.	16cc##	.
.	.	.	.	16a#	.
V7/IV	.	4A#	2ee#	16r	2gg##
.	.	.	.	16e#	.
.	.	.	.	16cc##	.
.	.	.	.	16a#	.
.	.	4A#	.	16r	.
.	.	.	.	16e#	.
.	.	.	.	16cc##	.
.	.	.	.	16a#	.
=12	=12	=12	=12	=12	=12
IVc	.	4A#	2dd#	16r	2ff##
.	.	.	.	16f##	.
.	.	.	.	16dd#	.
.	.	.	.	16a#	.
.	.	4A#	.	16r	.
.	.	.	.	16f##	.
.	.	.	.	16dd#	.
.	.	.	.	16a#	.
viio	Pedal E in the bass	4A#	2b#	16r	4.dd#
.	.	.	.	16g##	.
.	.	.	.	16dd#	.
.	.	.	.	16b#	.
.	.	4A#	.	16r	.
.	.	.	.	16g##	.
.	.	.	.	16dd#	16cc##
.	.	.	.	16b#	16dd#
=13	=13	=13	=13	=13	=13
I	.	4A#	4cc##	4a#	8cc##
.	.	.	.	.	16dd#
.	.	.	.	.	16ee#
.	.	2.r	2.r	2.r	16ff##
.	.	.	.	.	16gg##
.	.	.	.	.	16aa#
.	.	.	.	.	16gg##
.	.	.	.	.	16bb#
.	.	.	.	.	16aa#
.	.	.	.	.	16ccc##
.	.	.	.	.	16bb#
.	.	.	.	.	16aa#
.	.	.	.	.	16cc##
.	.	.	.	.	16dd#
.	.	.	.	.	16dd##
=14	=14	=14	=14	=14	=14
Ic	.	2E#	4a#	4cc##	8.ee#
.	.	.	.	.	32dd#
.	.	.	.	.	32cc##
V	.	.	4g##	4b#	8b#
.	.	.	.	.	3..r
.	.	4E#	2r	16r	.
.	.	.	.	16g##	.
.	.	.	.	16b#	.
.	.	.	.	16e#	.
viiob/V	.	4F##	.	16r	.
.	.	.	.	16a#	.
.	.	.	.	16f##	.
.	.	.	.	16d##	.
.	.	.	.	.	24r
=15	=15	=15	=15	=15	=15
Vb	.	4G##	2.e#	16e#	2.bb#
.	.	.	.	16e#	.
.	.	.	.	16b#	.
.	.	.	.	16g##	.
.	.	4GG##	.	16b#	.
.	.	.	.	16g##	.
.	.	.	.	16a#	.
.	.	.	.	16f##	.
.	.	4r	.	16g##	.
.	.	.	.	16e#	.
.	.	.	.	16f##	.
.	.	.	.	16d##	.
V+7b	.	4G##	[4e#	16e#	4bb##
.	.	.	.	16f##	.
.	.	.	.	16e#	.
.	.	.	.	16d#	.
=16	=16	=16	=16	=16	=16
I	.	4A#	4e#]	16c##	2.ccc##
.	.	.	.	16a#	.
.	.	.	.	16cc##	.
.	.	.	.	16a#	.
I+	.	4AA#	4e##	16cc##	.
.	.	.	.	16a#	.
.	.	.	.	16b#	.
.	.	.	.	16g##	.
vi	.	4r	4f##	16a#	.
.	.	.	.	16f##	.
.	.	.	.	16g##	.
.	.	.	.	16e##	.
V7b/ii	.	4A#	4cc##	16f##	4ee#
.	.	.	.	16f##	.
.	.	.	.	16cc##	.
.	.	.	.	16a#	.
=17	=17	=17	=17	=17	=17
V/V	.	4B#	4b#	16r	4dd##
.	.	.	.	16f##	.
.	.	.	.	16dd##	.
.	.	.	.	16b#	.
.	.	4B#	4dd##	16r	4bb#
.	.	.	.	16f##	.
.	.	.	.	16dd##	.
.	.	.	.	16b#	.
viioD7/ii	Pedal F sharp in the bass	4B#	4ee#	16r	4aa##
.	.	.	.	16g#	.
.	.	.	.	16ee#	.
.	.	.	.	16cc##	.
viio/IV	.	4B#	4g#	16r	4ee#
.	.	.	.	16g#	.
.	.	.	.	16ee#	.
.	.	.	.	16cc##	.
=18	=18	=18	=18	=18	=18
V/V	.	4B#	4f##	16r	4dd##
.	.	.	.	16f##	.
.	.	.	.	16dd##	.
.	.	.	.	16b#	.
.	.	4B#	4dd##	16r	4bb#
.	.	.	.	16f##	.
.	.	.	.	16dd##	.
.	.	.	.	16b#	.
viioD7/ii	.	4B#	4ee#	16r	4aa##
.	.	.	.	16g#	.
.	.	.	.	16ee#	.
.	.	.	.	16cc##	.
viio/IV	.	4B#	4g#	16r	4ee#
.	.	.	.	16g#	.
.	.	.	.	16ee#	.
.	.	.	.	16cc##	.
=19	=19	=19	=19	=19	=19
V/V	.	4B#	4f##	16r	4dd##
.	.	.	.	16f##	.
.	.	.	.	16dd##	.
.	.	.	.	16b#	.
.	.	4B#	4dd##	16r	4ff##
.	.	.	.	16f##	.
.	.	.	.	16dd##	.
.	.	.	.	16b#	.
V7/V	.	4B#	4dd##	16r	4aa#
.	.	.	.	16f##	.
.	.	.	.	16dd##	.
.	.	.	.	16b#	.
.	.	4B#	4dd##	16r	4aa#
.	.	.	.	16f##	.
.	.	.	.	16dd##	.
.	.	.	.	16b#	.
=20	=20	=20	=20	=20	=20
.	Dominant seventh of the dominant	4B#	4ff##	4dd##	6..aa#
.	.	2.r	2.r	2.r	.
.	.	.	.	.	24ddd##
.	.	.	.	.	24fff##
.	.	.	.	.	24aaa#
.	.	.	.	.	24fff##
.	.	.	.	.	24ddd##
.	.	.	.	.	8aa#
.	.	.	.	.	4.r
=21	=21	=21	=21	=21	=21
Vb	.	4G##	2e#	16r	2bbb#
.	.	.	.	16e#	.
.	.	.	.	16ee#	.
.	.	.	.	16b#	.
.	.	4G##	.	16r	.
.	.	.	.	16e#	.
.	.	.	.	16ee#	.
.	.	.	.	16b#	.
V7b	.	4G##	2b#	16r	4.d#
.	.	.	.	16e#	.
.	.	.	.	16dd#	.
.	.	.	.	16b#	.
.	.	4G##	.	16r	.
.	.	.	.	16e#	.
.	.	.	.	16dd#	16e#
.	.	.	.	16b#	16d#
=22	=22	=22	=22	=22	=22
I	.	4A#	4a#	16r	4c##
.	.	.	.	16e#	.
.	.	.	.	16cc##	.
.	.	.	.	16a#	.
.	.	4A#	4a#	16r	[6..ccc##
.	.	.	.	16e#	.
.	.	.	.	16cc##	.
.	.	.	.	16a#	.
viiob	.	4A#	4a#	4f##	.
.	.	.	.	.	48ccc##]
.	.	.	.	.	16bb##
.	.	.	.	.	16ccc##
.	.	.	.	.	16bb##
.	.	4r	4r	4r	16ccc##
.	.	.	.	.	16bb##
.	.	.	.	.	16ccc##
.	.	.	.	.	16ddd##
=23	=23	=23	=23	=23	=23
(Ic)	.	1r	1r	1r	16eee#
.	.	.	.	.	16bb##
.	.	.	.	.	16ccc##
.	.	.	.	.	16ddd##
.	.	.	.	.	16eee#
.	.	.	.	.	16gg##
.	.	.	.	.	16aa#
.	.	.	.	.	16bb#
.	.	.	.	.	16ccc##
.	.	.	.	.	16ee##
.	.	.	.	.	16ff##
.	.	.	.	.	16gg##
.	.	.	.	.	16aa#
.	.	.	.	.	16ee##
.	.	.	.	.	16ff##
.	.	.	.	.	16a##
=24	=24	=24	=24	=24	=24
Vc	.	4B#	4g##	16r	2b#
.	.	.	.	16g##	.
.	.	.	.	16ee#	.
.	.	.	.	16b#	.
.	.	4B#	4ee#	16r	.
.	.	.	.	16g##	.
.	.	.	.	16ee#	.
.	.	.	.	16b#	.
V7/V	.	4B#	4f##	16r	2ff##
.	.	.	.	16f##	.
.	.	.	.	16dd##	.
.	.	.	.	16a#	.
.	.	4B#	4dd##	16r	.
.	.	.	.	16f##	.
.	.	.	.	16dd##	.
.	.	.	.	16a#	.
=25	=25	=25	=25	=25	=25
V	.	4E#	4ee#	16r	[2ee#
.	.	.	.	16g##	.
.	.	.	.	16ee#	.
.	.	.	.	16b#	.
V7b	.	4G##	4dd#	16r	.
.	.	.	.	16e#	.
.	.	.	.	16dd#	.
.	.	.	.	16b#	.
I	.	4A#	4cc##	4cc##	16ee#]
.	.	.	.	.	16bb##
.	.	.	.	.	16ccc##
.	.	.	.	.	16aa#
V7/V	.	4B#	8r	8r	16gg##
.	.	.	.	.	16ff##
.	.	.	8f##	8a#	16ee#
.	.	.	.	.	16dd##
=26	=26	=26	=26	=26	=26
V	.	4E#	4e#	16r	[2ee#
.	.	.	.	16g##	.
.	.	.	.	16ee#	.
.	.	.	.	16b#	.
V+b	.	4G##	4dd#	16r	.
.	.	.	.	16e#	.
.	.	.	.	16dd#	.
.	.	.	.	16b#	.
I	.	4A#	4cc##	4cc##	16ee#]
.	.	.	.	.	16b##
.	.	.	.	.	16cc##
.	.	.	.	.	16a#
V7/V	.	4B#	8r	8r	16g##
.	.	.	.	.	16f##
.	.	.	8f##	8a#	16e#
.	.	.	.	.	16d##
=27	=27	=27	=27	=27	=27
viio/V	Pedal B in the bass	[2E#	2f##	2a#	2d##
V	.	4E#]	4e#	4g##	4e#
.	.	4r	4r	4r	4r
=28	=28	=28	=28	=28	=28
*	*	*	*	*	*
I	.	4A#	8r	8r	2.ee#
.	.	.	8e#	8cc##	.
.	.	4c##	8r	8r	.
.	.	.	8e#	8ee#	.
viio	.	4B#	8r	8r	.
.	.	.	8g##	8dd#	.
V7	.	4E#	8r	8r	4gg##
.	.	.	8dd#	8b#	.
=29	=29	=29	=29	=29	=29
I	.	4A#	8r	8r	8aa#
.	.	.	8cc##	8cc##	8ee#
.	.	4c##	8r	8r	4.ee#
.	.	.	8e#	8ee#	.
viio	.	4B#	8r	8r	.
.	.	.	8g##	8dd#	16ddd#
.	.	.	.	.	16ccc##
V7	.	4E#	8r	8r	16ddd#
.	.	.	.	.	16bb#
.	.	.	8dd#	8b#	16aa#
.	.	.	.	.	16gg##
=30	=30	=30	=30	=30	=30
I	.	4A#	4cc##	4e#	16aa#
.	.	.	.	.	16c##
.	.	.	.	.	16e#
.	.	.	.	.	16a#
.	.	2.r	2.r	2.r	16cc##
.	.	.	.	.	16ee#
.	.	.	.	.	16aa#
.	.	.	.	.	16ccc##
.	.	.	.	.	16eee#
.	.	.	.	.	16ccc##
.	.	.	.	.	16bb#
.	.	.	.	.	16aa#
.	.	.	.	.	32gg##
.	.	.	.	.	32aa#
.	.	.	.	.	32gg##
.	.	.	.	.	32aa#
.	.	.	.	.	32gg##
.	.	.	.	.	32aa#
.	.	.	.	.	32gg##
.	.	.	.	.	32aa#
=31	=31	=31	=31	=31	=31
IV	.	4D#	4a#	4dd#	4ff##
I	.	4A#	4a#	4cc##	4ee#
.	.	2r	2r	2r	2r
=32	=32	=32	=32	=32	=32
ii	.	4B#	8r	8r	[3..dd#
.	.	.	8f##	8dd#	.
IVc	.	4A#	8r	8r	.
.	.	.	8f##	8dd#	.
Vb	.	4G##	8r	8r	.
.	.	.	.	.	24dd#]
.	.	.	8e#	8dd#	16bb#
.	.	.	.	.	16gg##
V7	.	4G##	8r	8r	16ddd#
.	.	.	.	.	16bb#
.	.	.	8e#	8dd#	16gg##
.	.	.	.	.	16dd#
=33	=33	=33	=33	=33	=33
I	.	4A#	8r	8r	8dd#
.	.	.	8e#	8cc##	8cc##
iiic	.	4G##	8r	8r	[6..cc##
.	.	.	8e#	8cc##	.
vi	.	4F##	8r	8r	.
.	.	.	.	.	48cc##]
.	.	.	.	.	32dd#
.	.	.	.	.	32ee#
.	.	.	8a#	8cc##	32ff##
.	.	.	.	.	32gg##
.	.	.	.	.	32aa#
.	.	.	.	.	32bb#
Ib	.	4C##	8r	8r	16ccc##
.	.	.	.	.	16aa#
.	.	.	8e#	8a#	16ee#
.	.	.	.	.	16cc##
=34	=34	=34	=34	=34	=34
iib	.	4D#	8r	8r	8b#
.	.	.	8f##	8b#	16cc##
.	.	.	.	.	16dd#
.	.	4D#	8r	8r	8dd#
.	.	.	8f##	8b#	16ee#
.	.	.	.	.	16ff##
.	.	4D#	8r	8r	8ff##
.	.	.	8f##	8b#	16f##
.	.	.	.	.	16dd#
V7	.	4E#	8r	8r	8dd#
.	.	.	8B#	8d#	16.b#
.	.	.	.	.	32g##
=35	=35	=35	=35	=35	=35
viio	Pedal E in the bass	[4AA#	4B#	4d#	4g##
I	.	8AA#]	8A#	8c##	8a#
.	.	8d#	8f##	4r	3..r
Ib	.	4c##	4e#	.	.
.	.	.	.	8a#	.
viiob	.	4B#	4d#	8r	.
.	.	.	.	8g##	.
.	.	.	.	.	24r
=36	=36	=36	=36	=36	=36
I	.	4A#	4c##	16r	2.ee#
.	.	.	.	16a#	.
.	.	.	.	16cc##	.
.	.	.	.	16e#	.
Ib	.	4c##	4a#	16r	.
.	.	.	.	16e#	.
.	.	.	.	16ee#	.
.	.	.	.	16cc##	.
V7b	.	4B#	4g##	16r	.
.	.	.	.	16e#	.
.	.	.	.	16dd#	.
.	.	.	.	16b#	.
V7	.	4E#	4dd#	16r	4gg##
.	.	.	.	16b#	.
.	.	.	.	16dd#	.
.	.	.	.	16b#	.
=37	=37	=37	=37	=37	=37
I	.	4A#	4cc##	16r	8aa#
.	.	.	.	16e#	.
.	.	.	.	16cc##	8ee#
.	.	.	.	16a#	.
Ib	.	4c##	4a#	16r	6..ee#
.	.	.	.	16e#	.
.	.	.	.	16ee#	.
.	.	.	.	16cc##	.
V7b	.	4B#	4g##	16r	.
.	.	.	.	.	24gg##
.	.	.	.	16e#	.
.	.	.	.	.	24bb#
.	.	.	.	16g##	24ddd#
.	.	.	.	.	24ccc##
.	.	.	.	16b#	.
.	.	.	.	.	24bb#
V7	.	4E#	4dd#	16r	24fff##
.	.	.	.	.	24eee#
.	.	.	.	16b#	.
.	.	.	.	.	24ddd#
.	.	.	.	16dd#	24bb#
.	.	.	.	.	24aa#
.	.	.	.	16b#	.
.	.	.	.	.	24gg##
=38	=38	=38	=38	=38	=38
I	.	4A#	2cc##	16r	2aa#
.	.	.	.	16e#	.
.	.	.	.	16cc##	.
.	.	.	.	16a#	.
.	.	4A#	.	16r	.
.	.	.	.	16e#	.
.	.	.	.	16cc##	.
.	.	.	.	16a#	.
V7/IV	.	4A#	2ee#	16r	2ggg#
.	.	.	.	16e#	.
.	.	.	.	16cc##	.
.	.	.	.	16a#	.
.	.	4A#	.	16r	.
.	.	.	.	16e#	.
.	.	.	.	16cc##	.
.	.	.	.	16a#	.
=39	=39	=39	=39	=39	=39
IVc	.	4A#	2dd#	16r	2fff##
.	.	.	.	16f##	.
.	.	.	.	16dd#	.
.	.	.	.	16a#	.
.	.	4A#	.	16r	.
.	.	.	.	16f##	.
.	.	.	.	16dd#	.
.	.	.	.	16a#	.
viio	Pedal E in the bass	4A#	2b#	16r	2ddd#
.	.	.	.	16g##	.
.	.	.	.	16dd#	.
.	.	.	.	16b#	.
.	.	4A#	.	16r	.
.	.	.	.	16g##	.
.	.	.	.	16dd#	.
.	.	.	.	16b#	.
=40	=40	=40	=40	=40	=40
I	.	4A#	4cc##	4a#	16ccc##
.	.	.	.	.	16eee#
.	.	.	.	.	16ddd#
.	.	.	.	.	16ccc##
.	.	2r	2r	2r	16ddd#
.	.	.	.	.	16eee#
.	.	.	.	.	16fff##
.	.	.	.	.	16ggg##
.	.	.	.	.	16aa#
.	.	.	.	.	16ee#
.	.	.	.	.	16ccc##
.	.	.	.	.	16aa#
.	.	4A#	4e#	8.cc##	8.eee#
.	.	.	.	16a#	16cc##
=41	=41	=41	=41	=41	=41
Ic	.	4E#	2e#	4a#	4cc##
V	.	4e#	.	4g##	4b#
.	.	4E#	2r	16r	2r
.	.	.	.	16g##	.
.	.	.	.	16b#	.
.	.	.	.	16e#	.
viiob/V	.	4F##	.	16r	.
.	.	.	.	16a#	.
.	.	.	.	16f##	.
.	.	.	.	16d##	.
=42	=42	=42	=42	=42	=42
Vb	.	4G##	2e#	16r	[2bb#
.	.	.	.	16e#	.
.	.	.	.	16b#	.
.	.	.	.	16g##	.
.	.	4GG##	.	16b#	.
.	.	.	.	16g##	.
.	.	.	.	16a#	.
.	.	.	.	16f##	.
.	.	4r	4r	16g##	16bb#]
.	.	.	.	16e#	16gg##
.	.	.	.	16f##	16aa#
.	.	.	.	16d##	16ff##
.	.	4G##	[4e#	[4e#	16ee#
.	.	.	.	.	16eee#
.	.	.	.	.	16ee#
.	.	.	.	.	16ddd#
=43	=43	=43	=43	=43	=43
I	.	4A#	4e#]	16e#]	8bb##
.	.	.	.	16a#	.
.	.	.	.	16cc##	8ccc##
.	.	.	.	16a#	.
I+	.	4AA#	4e##	16cc##	[6..ccc##
.	.	.	.	16a#	.
.	.	.	.	16b#	.
.	.	.	.	16g##	.
vi	.	4r	4f##	16a#	.
.	.	.	.	.	48ccc##]
.	.	.	.	16f##	16aa#
.	.	.	.	16g##	16aaa#
.	.	.	.	16e##	16aaa#
vib	.	4A#	4cc##	16f##	16aaa#
.	.	.	.	16f##	16ggg##
.	.	.	.	16cc##	16fff##
.	.	.	.	16f##	16eee#
=44	=44	=44	=44	=44	=44
V/V	.	4B#	4b#	16r	4ddd##
.	.	.	.	16f##	.
.	.	.	.	16dd##	.
.	.	.	.	16b#	.
.	.	4B#	4dd##	16r	4bb#
.	.	.	.	16f##	.
.	.	.	.	16dd##	.
.	.	.	.	16b#	.
viioD7/ii	.	4B#	4ee#	16r	4aa##
.	.	.	.	16g#	.
.	.	.	.	16ee#	.
.	.	.	.	16cc##	.
viio/IV	Pedal F in the bass	4B#	4g#	16r	4ee#
.	.	.	.	16g#	.
.	.	.	.	16ee#	.
.	.	.	.	16cc##	.
=45	=45	=45	=45	=45	=45
V/V	.	4B#	4f##	16r	4dd##
.	.	.	.	16f##	.
.	.	.	.	16dd##	.
.	.	.	.	16b#	.
.	.	4B#	4dd##	16r	4bb#
.	.	.	.	16f##	.
.	.	.	.	16dd##	.
.	.	.	.	16b#	.
viioD7/ii	.	4B#	4ee#	16r	8aa##
.	.	.	.	16g#	.
.	.	.	.	16ee#	8ggg#
.	.	.	.	16cc##	.
viio/IV	Pedal F in the bass	4B#	4g#	16r	8fff##
.	.	.	.	16g#	.
.	.	.	.	16ee#	8eee#
.	.	.	.	16cc##	.
=46	=46	=46	=46	=46	=46
V/V	.	4B#	4f##	16r	16ddd##
.	.	.	.	16f##	16eee#
.	.	.	.	16dd##	16fff##
.	.	.	.	16b#	16ddd##
V7/V	.	4B#	4dd##	16r	8aa#
.	.	.	.	16f##	.
.	.	.	.	16dd##	8aa#
.	.	.	.	16b#	.
.	.	4B#	4dd##	16r	[12..aa#
.	.	.	.	16f##	.
.	.	.	.	16dd##	.
.	.	.	.	.	96aa#]
.	.	.	.	.	32bb#
.	.	.	.	16b#	32ccc##
.	.	.	.	.	32bb#
.	.	4B#	4dd##	16r	8aa#
.	.	.	.	16f##	.
.	.	.	.	16dd##	8aa#
.	.	.	.	16b#	.
=47	=47	=47	=47	=47	=47
.	.	4B#	4ff##	4dd##	2.aaa#
.	.	2.r	2.r	2.r	.
.	.	.	.	.	4aa#
=48	=48	=48	=48	=48	=48
Vb	.	4G##	2e#	16r	2bbb#
.	.	.	.	16e#	.
.	.	.	.	16ee#	.
.	.	.	.	16b#	.
.	.	4G##	.	16r	.
.	.	.	.	16e#	.
.	.	.	.	16ee#	.
.	.	.	.	16b#	.
V7b	.	4G##	2b#	16r	4.d#
.	.	.	.	16e#	.
.	.	.	.	16dd#	.
.	.	.	.	16b#	.
.	.	4G##	.	16r	.
.	.	.	.	16e#	.
.	.	.	.	16dd#	16e#
.	.	.	.	16b#	16d#
=49	=49	=49	=49	=49	=49
I	.	4A#	4a#	16r	4c##
.	.	.	.	16e#	.
.	.	.	.	16cc##	.
.	.	.	.	16a#	.
.	.	4A#	4a#	16r	6..ccc##
.	.	.	.	16e#	.
.	.	.	.	16cc##	.
.	.	.	.	16a#	.
viioD7d/iii	.	4A#	4a#	4f##	.
.	.	.	.	.	24ddd##
.	.	.	.	.	24bb##
.	.	.	.	.	24ccc##
.	.	.	.	.	24ddd##
.	.	.	.	.	24bb##
.	.	4r	4r	4r	24ccc##
.	.	.	.	.	24ddd##
.	.	.	.	.	24bb##
.	.	.	.	.	24ccc##
.	.	.	.	.	24eee#
.	.	.	.	.	24ddd##
=50	=50	=50	=50	=50	=50
(I)	.	1r	1r	1r	24eee#
.	.	.	.	.	24gg##
.	.	.	.	.	24aa#
.	.	.	.	.	24bb#
.	.	.	.	.	24ccc##
.	.	.	.	.	24ddd##
.	.	.	.	.	24eee#
.	.	.	.	.	24ee#
.	.	.	.	.	24ff##
.	.	.	.	.	24gg##
.	.	.	.	.	24aa#
.	.	.	.	.	24bb#
.	.	.	.	.	24ccc##
.	.	.	.	.	24cc##
.	.	.	.	.	24dd##
.	.	.	.	.	24ee#
.	.	.	.	.	24ff##
.	.	.	.	.	24gg##
.	.	.	.	.	24aa#
.	.	.	.	.	24gg##
.	.	.	.	.	24ff##
.	.	.	.	.	24ee#
.	.	.	.	.	24dd##
.	.	.	.	.	24cc##
=51	=51	=51	=51	=51	=51
Vc	.	4B#	2g##	16r	16b#
.	.	.	.	16g##	16ee#
.	.	.	.	16ee#	16gg##
.	.	.	.	16b#	16bb#
.	.	4B#	.	16r	16eee#
.	.	.	.	16g##	16ggg##
.	.	.	.	16ee#	16bbb#
.	.	.	.	16b#	16r
V7/V	.	4B#	4a#	16r	2ff##
.	.	.	.	16f##	.
.	.	.	.	16dd##	.
.	.	.	.	16a#	.
.	.	4B#	4d##	16r	.
.	.	.	.	16f##	.
.	.	.	.	16dd##	.
.	.	.	.	16a#	.
=52	=52	=52	=52	=52	=52
V	.	4E#	4e#	16r	2.bb#
.	.	.	.	16g##	.
.	.	.	.	16ee#	.
.	.	.	.	16b#	.
Vb	.	4G##	4e#	16r	.
.	.	.	.	16b#	.
.	.	.	.	16bb#	.
.	.	.	.	16gg##	.
V7c/V	.	4F##	4d##	16r	.
.	.	.	.	16b#	.
.	.	.	.	16aa#	.
.	.	.	.	16ff##	.
.	.	4BB#	4a#	16r	4ddd##
.	.	.	.	16b#	.
.	.	.	.	16aa#	.
.	.	.	.	16ff##	.
=53	=53	=53	=53	=53	=53
V	.	4E#	4g##	16r	8eee#
.	.	.	.	16b#	.
.	.	.	.	16gg##	8bb#
.	.	.	.	16ee#	.
Vb	.	4G##	4e#	16r	2bb#
.	.	.	.	16b#	.
.	.	.	.	16bb#	.
.	.	.	.	16gg##	.
V7c/V	.	4F##	4d##	16r	.
.	.	.	.	16b#	.
.	.	.	.	16aa#	.
.	.	.	.	16ff##	.
.	.	4B#	4a#	16r	4ddd##
.	.	.	.	16ff##	.
.	.	.	.	16aa#	.
.	.	.	.	16ff##	.
=54	=54	=54	=54	=54	=54
v	Minor fifth degree	4e#	4g#	16r	[3..eee#
.	.	.	.	16b#	.
.	.	.	.	16gg#	.
.	.	.	.	16ee#	.
.	.	4e#	4b#	16r	.
.	.	.	.	16b#	.
.	.	.	.	16gg#	.
.	.	.	.	16ee#	.
.	.	4e#	2gg#	16r	.
.	.	.	.	16b#	.
.	.	.	.	.	24eee#]
.	.	.	.	16gg#	8ddd#
.	.	.	.	16ee#	.
.	.	4e#	.	16r	8ccc##
.	.	.	.	16b#	.
.	.	.	.	16gg#	8bb#
.	.	.	.	16ee#	.
=55	=55	=55	=55	=55	=55
*	*	*	*	*	*
V7d/ii	.	4e#	4ff##	16r	1aa##
.	.	.	.	16cc##	.
.	.	.	.	16ff##	.
.	.	.	.	16f##	.
.	.	4e#	4cc##	16r	.
.	.	.	.	16cc##	.
.	.	.	.	16ff##	.
.	.	.	.	16f##	.
.	.	4e#	4a##	16r	.
.	.	.	.	16cc##	.
.	.	.	.	16ff##	.
.	.	.	.	16f##	.
.	.	4e#	4f##	16r	.
.	.	.	.	16cc##	.
.	.	.	.	16ff##	.
.	.	.	.	16f##	.
=56	=56	=56	=56	=56	=56
iib	.	4d#	4ff##	16r	1bb#
.	.	.	.	16f##	.
.	.	.	.	16ff##	.
.	.	.	.	16dd#	.
.	.	4d#	4dd#	16r	.
.	.	.	.	16f##	.
.	.	.	.	16ff##	.
.	.	.	.	16dd#	.
.	.	4d#	4b#	16r	.
.	.	.	.	16f##	.
.	.	.	.	16ff##	.
.	.	.	.	16dd#	.
.	.	4d#	4f##	16r	.
.	.	.	.	16f##	.
.	.	.	.	16ff##	.
.	.	.	.	16dd#	.
=57	=57	=57	=57	=57	=57
V7/vii	.	4d#	4aa#	16r	1ccc#
.	.	.	.	16a#	.
.	.	.	.	16ff##	.
.	.	.	.	16cc#	.
.	.	4d#	4ff##	16r	.
.	.	.	.	16a#	.
.	.	.	.	16ff##	.
.	.	.	.	16cc#	.
.	.	4d#	4cc#	16r	.
.	.	.	.	16a#	.
.	.	.	.	16ff##	.
.	.	.	.	16cc#	.
.	.	4d#	4a#	16r	.
.	.	.	.	16a#	.
.	.	.	.	16ff##	.
.	.	.	.	16cc#	.
=58	=58	=58	=58	=58	=58
vic	.	4c##	4aa#	16r	[2ccc##
.	.	.	.	16a#	.
.	.	.	.	16ff##	.
.	.	.	.	16cc##	.
.	.	4c##	4ff##	16r	.
.	.	.	.	16a#	.
.	.	.	.	16ff##	.
.	.	.	.	16cc##	.
.	.	4c##	4cc##	16r	4ccc##]
.	.	.	.	16a#	.
.	.	.	.	16ff##	.
.	.	.	.	16cc##	.
.	.	4c##	4a#	16r	16bb#
.	.	.	.	16a#	16aa#
.	.	.	.	16ff##	16gg##
.	.	.	.	16cc##	16ff##
=59	=59	=59	=59	=59	=59
V/vi	.	4c##	4cc##	16r	16ff##
.	.	.	.	16g##	16ee##
.	.	.	.	16ee##	16aa#
.	.	.	.	16cc##	16gg##
.	.	4c##	2e##	16r	2.gg##
.	.	.	.	16g##	.
.	.	.	.	16ee##	.
.	.	.	.	16cc##	.
.	.	4c##	.	16r	.
.	.	.	.	16g##	.
.	.	.	.	16ee##	.
.	.	.	.	16cc##	.
V7d/vi	.	4B#	4g##	16r	.
.	.	.	.	16g##	.
.	.	.	.	16ee##	.
.	.	.	.	16cc##	.
=60	=60	=60	=60	=60	=60
vib	.	4A#	4f##	16r	2.ccc##
.	.	.	.	16f##	.
.	.	.	.	16ff##	.
.	.	.	.	16cc##	.
.	.	4A#	4cc##	16r	.
.	.	.	.	16f##	.
.	.	.	.	16ff##	.
.	.	.	.	16cc##	.
V7b/ii	.	4A##	[2ff##	16r	.
.	.	.	.	16f##	.
.	.	.	.	16ee#	.
.	.	.	.	16cc##	.
.	.	4A##	.	16r	8ff##
.	.	.	.	16cc##	.
.	.	.	.	16ee#	8eee#
.	.	.	.	16cc##	.
=61	=61	=61	=61	=61	=61
ii	.	4B#	4ff##]	16r	8ddd#
.	.	.	.	16f##	.
.	.	.	.	16dd#	16ccc##
.	.	.	.	16b#	16bb#
.	.	4B#	4dd#	16r	2bb#
.	.	.	.	16f##	.
.	.	.	.	16dd#	.
.	.	.	.	16b#	.
V7b	.	4G##	[2ee#	16r	.
.	.	.	.	16e#	.
.	.	.	.	16dd#	.
.	.	.	.	16b#	.
.	.	4G##	.	16r	8ee#
.	.	.	.	16b#	.
.	.	.	.	16dd#	8ddd#
.	.	.	.	16b#	.
=62	=62	=62	=62	=62	=62
I	.	4A#	4ee#]	16r	8ccc##
.	.	.	.	16e#	.
.	.	.	.	16cc##	16bb#
.	.	.	.	16a#	16aa#
.	.	4A#	4cc##	16r	2aa#
.	.	.	.	16e#	.
.	.	.	.	16cc##	.
.	.	.	.	16a#	.
V7b/IV	.	4c##	4a#	16r	.
.	.	.	.	16a#	.
.	.	.	.	16ee#	.
.	.	.	.	16a#	.
.	.	4c##	4e#	16r	4gg#
.	.	.	.	16a#	.
.	.	.	.	16ee#	.
.	.	.	.	16a#	.
=63	=63	=63	=63	=63	=63
IV	.	4d#	2d#	16r	4ff##
.	.	.	.	16a#	.
.	.	.	.	16ff##	.
.	.	.	.	16dd#	.
.	.	4d#	.	16r	2fff##
.	.	.	.	16a#	.
.	.	.	.	16ff##	.
.	.	.	.	16dd#	.
V7b/V	.	4d##	2b#	16r	.
.	.	.	.	16a#	.
.	.	.	.	16ff##	.
.	.	.	.	16dd##	.
.	.	4d##	.	16r	4aa#
.	.	.	.	16a#	.
.	.	.	.	16ff##	.
.	.	.	.	16dd##	.
=64	=64	=64	=64	=64	=64
V	.	4e#	2.b#	16r	8gg##
.	.	.	.	16g##	.
.	.	.	.	16ee#	16ff##
.	.	.	.	16b#	16ee#
.	.	4e#	.	16r	4ee#
.	.	.	.	16g##	.
.	.	.	.	16ee#	.
.	.	.	.	16b#	.
V7d	.	4d#	.	16r	2r
.	.	.	.	16g##	.
.	.	.	.	16ee#	.
.	.	.	.	16b#	.
.	.	4d#	8cc##	16r	.
.	.	.	.	16g##	.
.	.	.	8dd#	16ee#	.
.	.	.	.	16b#	.
=65	=65	=65	=65	=65	=65
Ib	.	4c##	4ee#	16r	2.ee#
.	.	.	.	16a#	.
.	.	.	.	16ee#	.
.	.	.	.	16cc##	.
.	.	4C##	2A#	16ee#	.
.	.	.	.	16cc##	.
.	.	.	.	16dd#	.
.	.	.	.	16b#	.
I+b	.	4C##	.	16cc##	.
.	.	.	.	16a#	.
.	.	.	.	16b#	.
.	.	.	.	16g##	.
.	.	4C##	[4A#	16a#	4ee##
.	.	.	.	16b#	.
.	.	.	.	16a#	.
.	.	.	.	16g#	.
=66	=66	=66	=66	=66	=66
IV	.	2D#	4A#]	16f##	2.ff##
.	.	.	.	16dd#	.
.	.	.	.	16ff##	.
.	.	.	.	16dd#	.
IV+	.	.	4A##	16ff##	.
.	.	.	.	16dd#	.
.	.	.	.	16ee#	.
.	.	.	.	16cc##	.
ii	.	4r	[2B#	16dd#	.
.	.	.	.	16b#	.
.	.	.	.	16cc##	.
.	.	.	.	16a##	.
II+b	.	4D##	.	16b#	4aa##
.	.	.	.	16cc##	.
.	.	.	.	16b#	.
.	.	.	.	16a#	.
=67	=67	=67	=67	=67	=67
V	.	2E#	4B#]	16g##	1gg##
.	.	.	.	16ee#	.
.	.	.	.	16gg##	.
.	.	.	.	16ee#	.
V+	.	.	4B##	16gg##	.
.	.	.	.	16ee#	.
.	.	.	.	16ff##	.
.	.	.	.	16dd##	.
iii	.	4r	[2c##	16ee#	.
.	.	.	.	16cc##	.
.	.	.	.	16dd##	.
.	.	.	.	16b##	.
Vb/vi	.	4E##	.	16cc##	.
.	.	.	.	16dd##	.
.	.	.	.	16cc##	.
.	.	.	.	16b#	.
=68	=68	=68	=68	=68	=68
vi	.	4F##	4c##]	16a#	1aa#
.	.	.	.	16cc##	.
.	.	.	.	16aa#	.
.	.	.	.	16cc##	.
IVb	.	4F##	4A#	16r	.
.	.	.	.	16dd#	.
.	.	.	.	16aa#	.
.	.	.	.	16dd#	.
viiob/V	.	4F##	4a#	16r	.
.	.	.	.	16dd##	.
.	.	.	.	16aa#	.
.	.	.	.	16dd##	.
.	.	4F##	4a#	16r	.
.	.	.	.	16dd##	.
.	.	.	.	16aa#	.
.	.	.	.	16dd##	.
=69	=69	=69	=69	=69	=69
V	.	4E#	4b#	16r	4gg##
.	.	.	.	16ee#	.
.	.	.	.	16gg##	.
.	.	.	.	16b#	.
.	.	4E#	4gg##	16r	4eee#
.	.	.	.	16b#	.
.	.	.	.	16gg##	.
.	.	.	.	16ee#	.
viioD7/V	Pedal B in the bass	4E#	4aa#	16r	4ddd##
.	.	.	.	16cc#	.
.	.	.	.	16aa#	.
.	.	.	.	16ff##	.
.	.	4E#	4cc#	16r	4aa#
.	.	.	.	16cc#	.
.	.	.	.	16aa#	.
.	.	.	.	16ff##	.
=70	=70	=70	=70	=70	=70
V	.	4E#	4b#	16r	4gg##
.	.	.	.	16b#	.
.	.	.	.	16gg##	.
.	.	.	.	16ee#	.
.	.	4E#	4gg##	16r	4eee#
.	.	.	.	16b#	.
.	.	.	.	16gg##	.
.	.	.	.	16ee#	.
viioD7/V	Pedal B in the bass	4E#	4aa#	16r	4ddd##
.	.	.	.	16cc#	.
.	.	.	.	16aa#	.
.	.	.	.	16ff##	.
.	.	4E#	4cc#	16r	4aa#
.	.	.	.	16cc#	.
.	.	.	.	16aa#	.
.	.	.	.	16ff##	.
=71	=71	=71	=71	=71	=71
V	.	4E#	4b#	16r	4gg##
.	.	.	.	16b#	.
.	.	.	.	16gg##	.
.	.	.	.	16ee#	.
.	.	4E#	4b#	16r	4bb#
.	.	.	.	16b#	.
.	.	.	.	16gg##	.
.	.	.	.	16ee#	.
V7	.	4E#	4b#	16r	4ddd#
.	.	.	.	16b#	.
.	.	.	.	16gg##	.
.	.	.	.	16ee#	.
.	.	4E#	4b#	16r	4ddd#
.	.	.	.	16b#	.
.	.	.	.	16gg##	.
.	.	.	.	16ee#	.
=72	=72	=72	=72	=72	=72
.	.	4E#	4b#	4gg##	4.ddd#
.	.	2.r	2.r	2.r	.
.	.	.	.	.	16eee#
.	.	.	.	.	16fff##
.	.	.	.	.	4eee#
.	.	.	.	.	4ddd#
=73	=73	=73	=73	=73	=73
i	.	4A#	[1a#	16r	[1ccc#
.	.	.	.	16e#	.
.	.	.	.	16cc#	.
.	.	.	.	16a#	.
.	.	4A#	.	16r	.
.	.	.	.	16e#	.
.	.	.	.	16cc#	.
.	.	.	.	16a#	.
im7d	.	4G#	.	16r	.
.	.	.	.	16e#	.
.	.	.	.	16cc#	.
.	.	.	.	16a#	.
.	.	4G#	.	16r	.
.	.	.	.	16e#	.
.	.	.	.	16cc#	.
.	.	.	.	16a#	.
=74	=74	=74	=74	=74	=74
Gn	.	4F#	2a#]	16r	2ccc#]
.	.	.	.	16d##	.
.	.	.	.	16cc#	.
.	.	.	.	16a#	.
.	.	4F#	.	16r	.
.	.	.	.	16d##	.
.	.	.	.	16cc#	.
.	.	.	.	16a#	.
.	.	4F#	4b#	16r	4bb#
.	.	.	.	16d##	.
.	.	.	.	16b#	.
.	.	.	.	16a#	.
.	.	4F#	4cc#	16r	4aa#
.	.	.	.	16d##	.
.	.	.	.	16cc#	.
.	.	.	.	16a#	.
=75	=75	=75	=75	=75	=75
Ic	.	4E#	[1cc##	16r	[3..eee#
.	.	.	.	16e#	.
.	.	.	.	16cc##	.
.	.	.	.	16a#	.
.	.	4E#	.	16r	.
.	.	.	.	16e#	.
.	.	.	.	16cc##	.
.	.	.	.	16a#	.
.	.	4E#	.	16r	.
.	.	.	.	16e#	.
.	.	.	.	.	24eee#]
.	.	.	.	16cc##	8fff##
.	.	.	.	16a#	.
.	.	4E#	.	16r	8ggg##
.	.	.	.	16e#	.
.	.	.	.	16cc##	8aaa#
.	.	.	.	16a#	.
=76	=76	=76	=76	=76	=76
Ic	.	4E#	4cc##]	16r	2ee#
.	.	.	.	16cc##	.
.	.	.	.	16ee#	.
.	.	.	.	16a#	.
.	.	4E#	4aa#	16r	.
.	.	.	.	16ee#	.
.	.	.	.	16aa#	.
.	.	.	.	16cc##	.
V7	.	4E#	4b#	16r	2bb#
.	.	.	.	16b#	.
.	.	.	.	16gg##	.
.	.	.	.	16dd#	.
.	.	4E#	4gg##	16r	.
.	.	.	.	16b#	.
.	.	.	.	16gg##	.
.	.	.	.	16dd#	.
=77	=77	=77	=77	=77	=77
I	.	4A#	4a#	16r	[2aa#
.	.	.	.	16cc##	.
.	.	.	.	16aa#	.
.	.	.	.	16ee#	.
V+7b/IV	.	4c##	4gg#	16r	.
.	.	.	.	16a#	.
.	.	.	.	16gg#	.
.	.	.	.	16ee##	.
IV	.	4d#	4ff##	4ff##	16aa#]
.	.	.	.	.	16eee##
.	.	.	.	.	16fff##
.	.	.	.	.	16ddd#
V7	.	4e#	8r	8r	16ccc##
.	.	.	.	.	16bb#
.	.	.	8dd#	8dd#	16aa#
.	.	.	.	.	16gg##
=78	=78	=78	=78	=78	=78
I	.	4A#	4cc##	16r	[2aa#
.	.	.	.	16cc##	.
.	.	.	.	16aa#	.
.	.	.	.	16ee#	.
V+7b/IV	.	4C##	4gg#	16r	.
.	.	.	.	16a#	.
.	.	.	.	16gg#	.
.	.	.	.	16ee##	.
IV	.	4D#	4ff##	4ff##	16aa#]
.	.	.	.	.	16ee##
.	.	.	.	.	16ff##
.	.	.	.	.	16dd#
V7	.	4E#	8r	8r	16cc##
.	.	.	.	.	16b#
.	.	.	8B#	8d#	16a#
.	.	.	.	.	16g##
=79	=79	=79	=79	=79	=79
viio	Pedal E in the bass	[2AA#	2B#	2d#	2g##
I	.	4AA#]	4A#	4c##	4a#
.	.	4r	4r	4r	4r
==	==	==	==	==	==
*-	*-	*-	*-	*-	*-
!!!RWG1: This file contains only pitch and duration data.
!!!RWG2: Transposing instruments are not transposed.
!!!RWG3: Spines may have incompatible meters.
!!!RWG4: Durations of rests and tied notes may be interpreted.
!!!RWG: Key is interpreted using the Humdrum key tool.
!!!GTL: 6 Divertimentos ("Sun")
!!!AFT: stage1
!!!END: 1997/04/15
!!!KEY: 1906484277
!!!EMD: Converted from MuseData to Humdrum Dec 16, 2000, by Andreas Kornstaedt using muse2kern.
!!!EMD: Manual editing by Craig Sapp, Nov 2001
!!!EMD: Changing fourth beat of mm.5 to match the Altmann Edition, Nestor Napoles, June 2017
